images/50699022.svg

<?xml version="1.0" encoding="UTF-8"?>
<svg xmlns="http://www.w3.org/2000/svg" xmlns:xlink="http://www.w3.org/1999/xlink" width="300pt" height="300pt" viewBox="0 0 300 300" version="1.1">
<defs>
<g>
<symbol overflow="visible" id="glyph0-0">
<path style="stroke:none;" d="M 0.453125 1.59375 L 0.453125 -6.34375 L 4.953125 -6.34375 L 4.953125 1.59375 Z M 0.953125 1.09375 L 4.453125 1.09375 L 4.453125 -5.84375 L 0.953125 -5.84375 Z M 0.953125 1.09375 "/>
</symbol>
<symbol overflow="visible" id="glyph0-1">
<path style="stroke:none;" d="M 3.546875 -5.953125 C 2.898438 -5.953125 2.382812 -5.710938 2 -5.234375 C 1.625 -4.753906 1.4375 -4.101562 1.4375 -3.28125 C 1.4375 -2.445312 1.625 -1.789062 2 -1.3125 C 2.382812 -0.832031 2.898438 -0.59375 3.546875 -0.59375 C 4.191406 -0.59375 4.703125 -0.832031 5.078125 -1.3125 C 5.453125 -1.789062 5.640625 -2.445312 5.640625 -3.28125 C 5.640625 -4.101562 5.453125 -4.753906 5.078125 -5.234375 C 4.703125 -5.710938 4.191406 -5.953125 3.546875 -5.953125 Z M 3.546875 -6.6875 C 4.460938 -6.6875 5.195312 -6.375 5.75 -5.75 C 6.300781 -5.132812 6.578125 -4.3125 6.578125 -3.28125 C 6.578125 -2.238281 6.300781 -1.410156 5.75 -0.796875 C 5.195312 -0.179688 4.460938 0.125 3.546875 0.125 C 2.617188 0.125 1.878906 -0.179688 1.328125 -0.796875 C 0.773438 -1.410156 0.5 -2.238281 0.5 -3.28125 C 0.5 -4.3125 0.773438 -5.132812 1.328125 -5.75 C 1.878906 -6.375 2.617188 -6.6875 3.546875 -6.6875 Z M 3.546875 -6.6875 "/>
</symbol>
<symbol overflow="visible" id="glyph0-2">
<path style="stroke:none;" d="M 0.890625 -6.5625 L 2.078125 -6.5625 L 4.984375 -1.078125 L 4.984375 -6.5625 L 5.84375 -6.5625 L 5.84375 0 L 4.65625 0 L 1.75 -5.484375 L 1.75 0 L 0.890625 0 Z M 0.890625 -6.5625 "/>
</symbol>
<symbol overflow="visible" id="glyph0-3">
<path style="stroke:none;" d="M 0.890625 -6.5625 L 1.765625 -6.5625 L 1.765625 -3.875 L 5 -3.875 L 5 -6.5625 L 5.890625 -6.5625 L 5.890625 0 L 5 0 L 5 -3.125 L 1.765625 -3.125 L 1.765625 0 L 0.890625 0 Z M 0.890625 -6.5625 "/>
</symbol>
</g>
</defs>
<g id="surface14437">
<rect x="0" y="0" width="300" height="300" style="fill:rgb(100%,100%,100%);fill-opacity:1;stroke:none;"/>
<path style="fill:none;stroke-width:1.2;stroke-linecap:butt;stroke-linejoin:miter;stroke:rgb(100%,0%,0%);stroke-opacity:1;stroke-miterlimit:10;" d="M 264.75 156.359375 L 255.515625 162.421875 "/>
<path style="fill:none;stroke-width:1.2;stroke-linecap:butt;stroke-linejoin:miter;stroke:rgb(0%,0%,0%);stroke-opacity:1;stroke-miterlimit:10;" d="M 255.515625 162.421875 L 246.28125 168.484375 "/>
<path style="fill:none;stroke-width:1.2;stroke-linecap:butt;stroke-linejoin:miter;stroke:rgb(0%,0%,0%);stroke-opacity:1;stroke-miterlimit:10;" d="M 263.484375 134.304688 L 264.117188 145.332031 "/>
<path style="fill:none;stroke-width:1.2;stroke-linecap:butt;stroke-linejoin:miter;stroke:rgb(100%,0%,0%);stroke-opacity:1;stroke-miterlimit:10;" d="M 264.117188 145.332031 L 264.75 156.359375 "/>
<path style=" stroke:none;fill-rule:nonzero;fill:rgb(100%,100%,100%);fill-opacity:1;" d="M 260.75 150.859375 L 268.75 150.859375 L 268.75 161.859375 L 260.75 161.859375 Z M 260.75 150.859375 "/>
<g style="fill:rgb(100%,0%,0%);fill-opacity:1;">
  <use xlink:href="#glyph0-1" x="260.75" y="159.522461"/>
</g>
<path style="fill:none;stroke-width:1.2;stroke-linecap:butt;stroke-linejoin:miter;stroke:rgb(0%,0%,0%);stroke-opacity:1;stroke-miterlimit:10;" d="M 246.28125 168.484375 L 226.550781 158.550781 "/>
<path style="fill:none;stroke-width:1.2;stroke-linecap:butt;stroke-linejoin:miter;stroke:rgb(0%,0%,0%);stroke-opacity:1;stroke-miterlimit:10;" d="M 226.550781 158.550781 L 225.285156 136.496094 "/>
<path style="fill:none;stroke-width:1.2;stroke-linecap:butt;stroke-linejoin:miter;stroke:rgb(0%,0%,0%);stroke-opacity:1;stroke-miterlimit:10;" d="M 225.285156 136.496094 L 243.75 124.371094 "/>
<path style="fill:none;stroke-width:1.2;stroke-linecap:butt;stroke-linejoin:miter;stroke:rgb(0%,0%,0%);stroke-opacity:1;stroke-miterlimit:10;" d="M 225.285156 136.496094 L 205.652344 146.625 "/>
<path style="fill:none;stroke-width:1.2;stroke-linecap:butt;stroke-linejoin:miter;stroke:rgb(0%,0%,0%);stroke-opacity:1;stroke-miterlimit:10;" d="M 221.71875 114.695312 L 225.285156 136.496094 "/>
<path style="fill:none;stroke-width:1.2;stroke-linecap:butt;stroke-linejoin:miter;stroke:rgb(0%,0%,0%);stroke-opacity:1;stroke-miterlimit:10;" d="M 243.75 124.371094 L 263.484375 134.304688 "/>
<path style="fill:none;stroke-width:1.2;stroke-linecap:butt;stroke-linejoin:miter;stroke:rgb(0%,0%,0%);stroke-opacity:1;stroke-miterlimit:10;" d="M 205.652344 146.625 L 189.953125 131.082031 "/>
<path style="fill:none;stroke-width:1.2;stroke-linecap:butt;stroke-linejoin:miter;stroke:rgb(0%,0%,0%);stroke-opacity:1;stroke-miterlimit:10;" d="M 200.421875 148.761719 L 187.863281 136.328125 "/>
<path style="fill:none;stroke-width:1.2;stroke-linecap:butt;stroke-linejoin:miter;stroke:rgb(0%,0%,0%);stroke-opacity:1;stroke-miterlimit:10;" d="M 200.039062 167.988281 L 205.652344 146.625 "/>
<path style="fill:none;stroke-width:1.2;stroke-linecap:butt;stroke-linejoin:miter;stroke:rgb(0%,0%,0%);stroke-opacity:1;stroke-miterlimit:10;" d="M 189.953125 131.082031 L 194.917969 121.214844 "/>
<path style="fill:none;stroke-width:1.2;stroke-linecap:butt;stroke-linejoin:miter;stroke:rgb(0%,0%,100%);stroke-opacity:1;stroke-miterlimit:10;" d="M 194.917969 121.214844 L 199.882812 111.347656 "/>
<path style="fill:none;stroke-width:1.2;stroke-linecap:butt;stroke-linejoin:miter;stroke:rgb(0%,0%,0%);stroke-opacity:1;stroke-miterlimit:10;" d="M 189.953125 131.082031 L 168.640625 136.902344 "/>
<path style="fill:none;stroke-width:1.2;stroke-linecap:butt;stroke-linejoin:miter;stroke:rgb(0%,0%,100%);stroke-opacity:1;stroke-miterlimit:10;" d="M 199.882812 111.347656 L 210.800781 113.019531 "/>
<path style="fill:none;stroke-width:1.2;stroke-linecap:butt;stroke-linejoin:miter;stroke:rgb(0%,0%,0%);stroke-opacity:1;stroke-miterlimit:10;" d="M 210.800781 113.019531 L 221.71875 114.695312 "/>
<path style=" stroke:none;fill-rule:nonzero;fill:rgb(100%,100%,100%);fill-opacity:1;" d="M 192.882812 105.847656 L 206.882812 105.847656 L 206.882812 116.847656 L 192.882812 116.847656 Z M 192.882812 105.847656 "/>
<g style="fill:rgb(0%,0%,100%);fill-opacity:1;">
  <use xlink:href="#glyph0-2" x="192.882812" y="114.510742"/>
  <use xlink:href="#glyph0-3" x="199.860352" y="114.510742"/>
</g>
<path style="fill:none;stroke-width:1.2;stroke-linecap:butt;stroke-linejoin:miter;stroke:rgb(0%,0%,0%);stroke-opacity:1;stroke-miterlimit:10;" d="M 223.566406 116.523438 L 231.339844 108.675781 "/>
<path style="fill:none;stroke-width:1.2;stroke-linecap:butt;stroke-linejoin:miter;stroke:rgb(100%,0%,0%);stroke-opacity:1;stroke-miterlimit:10;" d="M 231.339844 108.675781 L 239.109375 100.824219 "/>
<path style="fill:none;stroke-width:1.2;stroke-linecap:butt;stroke-linejoin:miter;stroke:rgb(0%,0%,0%);stroke-opacity:1;stroke-miterlimit:10;" d="M 219.875 112.867188 L 227.644531 105.015625 "/>
<path style="fill:none;stroke-width:1.2;stroke-linecap:butt;stroke-linejoin:miter;stroke:rgb(100%,0%,0%);stroke-opacity:1;stroke-miterlimit:10;" d="M 227.644531 105.015625 L 235.417969 97.167969 "/>
<path style=" stroke:none;fill-rule:nonzero;fill:rgb(100%,100%,100%);fill-opacity:1;" d="M 233.261719 93.496094 L 241.261719 93.496094 L 241.261719 104.496094 L 233.261719 104.496094 Z M 233.261719 93.496094 "/>
<g style="fill:rgb(100%,0%,0%);fill-opacity:1;">
  <use xlink:href="#glyph0-1" x="233.261719" y="102.15918"/>
</g>
<path style="fill:none;stroke-width:1.2;stroke-linecap:butt;stroke-linejoin:miter;stroke:rgb(0%,0%,0%);stroke-opacity:1;stroke-miterlimit:10;" d="M 168.640625 136.902344 L 163.03125 158.269531 "/>
<path style="fill:none;stroke-width:1.2;stroke-linecap:butt;stroke-linejoin:miter;stroke:rgb(0%,0%,0%);stroke-opacity:1;stroke-miterlimit:10;" d="M 173.109375 140.359375 L 168.621094 157.453125 "/>
<path style="fill:none;stroke-width:1.2;stroke-linecap:butt;stroke-linejoin:miter;stroke:rgb(0%,0%,0%);stroke-opacity:1;stroke-miterlimit:10;" d="M 163.03125 158.269531 L 178.730469 173.8125 "/>
<path style="fill:none;stroke-width:1.2;stroke-linecap:butt;stroke-linejoin:miter;stroke:rgb(0%,0%,0%);stroke-opacity:1;stroke-miterlimit:10;" d="M 163.03125 158.269531 L 141.722656 164.09375 "/>
<path style="fill:none;stroke-width:1.2;stroke-linecap:butt;stroke-linejoin:miter;stroke:rgb(0%,0%,0%);stroke-opacity:1;stroke-miterlimit:10;" d="M 178.730469 173.8125 L 200.039062 167.988281 "/>
<path style="fill:none;stroke-width:1.2;stroke-linecap:butt;stroke-linejoin:miter;stroke:rgb(0%,0%,0%);stroke-opacity:1;stroke-miterlimit:10;" d="M 179.488281 168.21875 L 196.539062 163.558594 "/>
<path style="fill:none;stroke-width:1.2;stroke-linecap:butt;stroke-linejoin:miter;stroke:rgb(0%,0%,0%);stroke-opacity:1;stroke-miterlimit:10;" d="M 141.722656 164.09375 L 126.023438 148.550781 "/>
<path style="fill:none;stroke-width:1.2;stroke-linecap:butt;stroke-linejoin:miter;stroke:rgb(0%,0%,0%);stroke-opacity:1;stroke-miterlimit:10;" d="M 136.492188 166.234375 L 123.933594 153.796875 "/>
<path style="fill:none;stroke-width:1.2;stroke-linecap:butt;stroke-linejoin:miter;stroke:rgb(0%,0%,0%);stroke-opacity:1;stroke-miterlimit:10;" d="M 136.109375 185.460938 L 141.722656 164.09375 "/>
<path style="fill:none;stroke-width:1.2;stroke-linecap:butt;stroke-linejoin:miter;stroke:rgb(0%,0%,0%);stroke-opacity:1;stroke-miterlimit:10;" d="M 126.023438 148.550781 L 104.714844 154.375 "/>
<path style="fill:none;stroke-width:1.2;stroke-linecap:butt;stroke-linejoin:miter;stroke:rgb(0%,0%,0%);stroke-opacity:1;stroke-miterlimit:10;" d="M 104.714844 154.375 L 99.101562 175.742188 "/>
<path style="fill:none;stroke-width:1.2;stroke-linecap:butt;stroke-linejoin:miter;stroke:rgb(0%,0%,0%);stroke-opacity:1;stroke-miterlimit:10;" d="M 109.179688 157.832031 L 104.691406 174.925781 "/>
<path style="fill:none;stroke-width:1.2;stroke-linecap:butt;stroke-linejoin:miter;stroke:rgb(0%,0%,0%);stroke-opacity:1;stroke-miterlimit:10;" d="M 104.714844 154.375 L 89.015625 138.832031 "/>
<path style="fill:none;stroke-width:1.2;stroke-linecap:butt;stroke-linejoin:miter;stroke:rgb(0%,0%,0%);stroke-opacity:1;stroke-miterlimit:10;" d="M 99.101562 175.742188 L 114.800781 191.285156 "/>
<path style="fill:none;stroke-width:1.2;stroke-linecap:butt;stroke-linejoin:miter;stroke:rgb(0%,0%,0%);stroke-opacity:1;stroke-miterlimit:10;" d="M 114.800781 191.285156 L 136.109375 185.460938 "/>
<path style="fill:none;stroke-width:1.2;stroke-linecap:butt;stroke-linejoin:miter;stroke:rgb(0%,0%,0%);stroke-opacity:1;stroke-miterlimit:10;" d="M 115.558594 185.6875 L 132.609375 181.027344 "/>
<path style="fill:none;stroke-width:1.2;stroke-linecap:butt;stroke-linejoin:miter;stroke:rgb(0%,0%,0%);stroke-opacity:1;stroke-miterlimit:10;" d="M 136.109375 185.460938 L 151.808594 201.003906 "/>
<path style="fill:none;stroke-width:1.2;stroke-linecap:butt;stroke-linejoin:miter;stroke:rgb(0%,0%,0%);stroke-opacity:1;stroke-miterlimit:10;" d="M 89.015625 138.832031 L 78.113281 140.613281 "/>
<path style="fill:none;stroke-width:1.2;stroke-linecap:butt;stroke-linejoin:miter;stroke:rgb(0%,0%,100%);stroke-opacity:1;stroke-miterlimit:10;" d="M 78.113281 140.613281 L 67.214844 142.394531 "/>
<path style="fill:none;stroke-width:1.2;stroke-linecap:butt;stroke-linejoin:miter;stroke:rgb(0%,0%,100%);stroke-opacity:1;stroke-miterlimit:10;" d="M 92.363281 116.996094 L 90.6875 127.914062 "/>
<path style="fill:none;stroke-width:1.2;stroke-linecap:butt;stroke-linejoin:miter;stroke:rgb(0%,0%,0%);stroke-opacity:1;stroke-miterlimit:10;" d="M 90.6875 127.914062 L 89.015625 138.832031 "/>
<path style="fill:none;stroke-width:1.2;stroke-linecap:butt;stroke-linejoin:miter;stroke:rgb(0%,0%,100%);stroke-opacity:1;stroke-miterlimit:10;" d="M 86.890625 118.390625 L 85.550781 127.125 "/>
<path style="fill:none;stroke-width:1.2;stroke-linecap:butt;stroke-linejoin:miter;stroke:rgb(0%,0%,0%);stroke-opacity:1;stroke-miterlimit:10;" d="M 85.550781 127.125 L 84.210938 135.859375 "/>
<path style="fill:none;stroke-width:1.2;stroke-linecap:butt;stroke-linejoin:miter;stroke:rgb(0%,0%,100%);stroke-opacity:1;stroke-miterlimit:10;" d="M 67.214844 142.394531 L 62.148438 132.578125 "/>
<path style="fill:none;stroke-width:1.2;stroke-linecap:butt;stroke-linejoin:miter;stroke:rgb(0%,0%,0%);stroke-opacity:1;stroke-miterlimit:10;" d="M 62.148438 132.578125 L 57.085938 122.761719 "/>
<path style=" stroke:none;fill-rule:nonzero;fill:rgb(100%,100%,100%);fill-opacity:1;" d="M 60.214844 136.894531 L 74.214844 136.894531 L 74.214844 147.894531 L 60.214844 147.894531 Z M 60.214844 136.894531 "/>
<g style="fill:rgb(0%,0%,100%);fill-opacity:1;">
  <use xlink:href="#glyph0-2" x="60.214844" y="145.557617"/>
  <use xlink:href="#glyph0-3" x="67.192383" y="145.557617"/>
</g>
<path style="fill:none;stroke-width:1.2;stroke-linecap:butt;stroke-linejoin:miter;stroke:rgb(0%,0%,0%);stroke-opacity:1;stroke-miterlimit:10;" d="M 57.085938 122.761719 L 64.859375 114.914062 "/>
<path style="fill:none;stroke-width:1.2;stroke-linecap:butt;stroke-linejoin:miter;stroke:rgb(0%,0%,100%);stroke-opacity:1;stroke-miterlimit:10;" d="M 64.859375 114.914062 L 72.628906 107.0625 "/>
<path style="fill:none;stroke-width:1.2;stroke-linecap:butt;stroke-linejoin:miter;stroke:rgb(0%,0%,0%);stroke-opacity:1;stroke-miterlimit:10;" d="M 62.335938 124.847656 L 68.550781 118.570312 "/>
<path style="fill:none;stroke-width:1.2;stroke-linecap:butt;stroke-linejoin:miter;stroke:rgb(0%,0%,100%);stroke-opacity:1;stroke-miterlimit:10;" d="M 68.550781 118.570312 L 74.769531 112.289062 "/>
<path style="fill:none;stroke-width:1.2;stroke-linecap:butt;stroke-linejoin:miter;stroke:rgb(0%,0%,0%);stroke-opacity:1;stroke-miterlimit:10;" d="M 57.085938 122.761719 L 35.25 119.414062 "/>
<path style="fill:none;stroke-width:1.2;stroke-linecap:butt;stroke-linejoin:miter;stroke:rgb(0%,0%,100%);stroke-opacity:1;stroke-miterlimit:10;" d="M 72.628906 107.0625 L 92.363281 116.996094 "/>
<path style=" stroke:none;fill-rule:nonzero;fill:rgb(100%,100%,100%);fill-opacity:1;" d="M 69.628906 101.5625 L 76.628906 101.5625 L 76.628906 112.5625 L 69.628906 112.5625 Z M 69.628906 101.5625 "/>
<g style="fill:rgb(0%,0%,100%);fill-opacity:1;">
  <use xlink:href="#glyph0-2" x="69.628906" y="110.225586"/>
</g>
<path style=" stroke:none;fill-rule:nonzero;fill:rgb(100%,100%,100%);fill-opacity:1;" d="M 89.363281 111.496094 L 96.363281 111.496094 L 96.363281 122.496094 L 89.363281 122.496094 Z M 89.363281 111.496094 "/>
<g style="fill:rgb(0%,0%,100%);fill-opacity:1;">
  <use xlink:href="#glyph0-2" x="89.363281" y="120.15918"/>
</g>
</g>
</svg>

<svg xmlns="http://www.w3.org/2000/svg" xmlns:xlink="http://www.w3.org/1999/xlink" width="300pt" height="300pt" viewBox="0 0 300 300"><defs><symbol overflow="visible"><path d="M.453 1.594v-7.938h4.5v7.938zm.5-.5h3.5v-6.938h-3.5zm0 0"/></symbol><symbol overflow="visible" id="a"><path d="M3.547-5.953c-.65 0-1.164.242-1.547.72-.375.48-.563 1.13-.563 1.952 0 .835.188 1.49.563 1.967.383.48.898.72 1.547.72.644 0 1.156-.24 1.53-.72.376-.476.564-1.132.564-1.968 0-.822-.187-1.474-.562-1.954-.375-.477-.887-.72-1.53-.72zm0-.734c.914 0 1.648.312 2.203.937.55.617.828 1.438.828 2.47 0 1.042-.277 1.87-.828 2.483-.555.617-1.29.922-2.203.922-.93 0-1.668-.305-2.22-.922C.774-1.41.5-2.237.5-3.28c0-1.033.273-1.853.828-2.47.55-.625 1.29-.938 2.22-.938zm0 0"/></symbol><symbol overflow="visible" id="b"><path d="M.89-6.563H2.08l2.906 5.485v-5.484h.86V0H4.656L1.75-5.484V0H.89zm0 0"/></symbol><symbol overflow="visible" id="c"><path d="M.89-6.563h.876v2.688H5v-2.688h.89V0H5v-3.125H1.766V0H.89zm0 0"/></symbol></defs><g><path fill="#fff" d="M0 0h300v300H0z"/><path d="M264.75 156.36l-9.234 6.062" stroke-width="1.2" stroke="#f00" stroke-miterlimit="10" fill="none"/><path d="M255.516 162.422l-9.235 6.062M263.484 134.305l.633 11.027" stroke-width="1.2" stroke="#000" stroke-miterlimit="10" fill="none"/><path d="M264.117 145.332l.633 11.027" stroke-width="1.2" stroke="#f00" stroke-miterlimit="10" fill="none"/><path d="M260.75 150.86h8v11h-8zm0 0" fill="#fff"/><use xlink:href="#a" x="260.75" y="159.522" fill="#f00"/><path d="M246.28 168.484l-19.73-9.933M226.55 158.55l-1.265-22.054M225.285 136.496l18.465-12.125M225.285 136.496l-19.633 10.13M221.72 114.695l3.565 21.8M243.75 124.37l19.734 9.935M205.652 146.625l-15.7-15.543M200.422 148.762l-12.56-12.434M200.04 167.988l5.612-21.363M189.953 131.082l4.965-9.867" stroke-width="1.2" stroke="#000" stroke-miterlimit="10" fill="none"/><path d="M194.918 121.215l4.965-9.867" stroke-width="1.2" stroke="#00f" stroke-miterlimit="10" fill="none"/><path d="M189.953 131.082l-21.312 5.82" stroke-width="1.2" stroke="#000" stroke-miterlimit="10" fill="none"/><path d="M199.883 111.348l10.918 1.672" stroke-width="1.2" stroke="#00f" stroke-miterlimit="10" fill="none"/><path d="M210.8 113.02l10.92 1.675" stroke-width="1.2" stroke="#000" stroke-miterlimit="10" fill="none"/><path d="M192.883 105.848h14v11h-14zm0 0" fill="#fff"/><g fill="#00f"><use xlink:href="#b" x="192.883" y="114.511"/><use xlink:href="#c" x="199.86" y="114.511"/></g><path d="M223.566 116.523l7.774-7.847" stroke-width="1.2" stroke="#000" stroke-miterlimit="10" fill="none"/><path d="M231.34 108.676l7.77-7.852" stroke-width="1.2" stroke="#f00" stroke-miterlimit="10" fill="none"/><path d="M219.875 112.867l7.77-7.85" stroke-width="1.2" stroke="#000" stroke-miterlimit="10" fill="none"/><path d="M227.645 105.016l7.773-7.848" stroke-width="1.2" stroke="#f00" stroke-miterlimit="10" fill="none"/><path d="M233.262 93.496h8v11h-8zm0 0" fill="#fff"/><use xlink:href="#a" x="233.262" y="102.159" fill="#f00"/><path d="M168.64 136.902l-5.61 21.368M173.11 140.36l-4.49 17.093M163.03 158.27l15.7 15.542M163.03 158.27l-21.307 5.824M178.73 173.813l21.31-5.825M179.488 168.22l17.05-4.66M141.723 164.094l-15.7-15.543M136.492 166.234l-12.558-12.437M136.11 185.46l5.613-21.366M126.023 148.55l-21.308 5.825M104.715 154.375l-5.613 21.367M109.18 157.832l-4.49 17.094M104.715 154.375l-15.7-15.543M99.102 175.742l15.7 15.543M114.8 191.285l21.31-5.824M115.56 185.688l17.05-4.66M136.11 185.46l15.7 15.544M89.016 138.832l-10.903 1.78" stroke-width="1.2" stroke="#000" stroke-miterlimit="10" fill="none"/><path d="M78.113 140.613l-10.898 1.782M92.363 116.996l-1.675 10.918" stroke-width="1.2" stroke="#00f" stroke-miterlimit="10" fill="none"/><path d="M90.688 127.914l-1.672 10.918" stroke-width="1.2" stroke="#000" stroke-miterlimit="10" fill="none"/><path d="M86.89 118.39l-1.34 8.735" stroke-width="1.2" stroke="#00f" stroke-miterlimit="10" fill="none"/><path d="M85.55 127.125l-1.34 8.734" stroke-width="1.2" stroke="#000" stroke-miterlimit="10" fill="none"/><path d="M67.215 142.395l-5.067-9.817" stroke-width="1.2" stroke="#00f" stroke-miterlimit="10" fill="none"/><path d="M62.148 132.578l-5.062-9.816" stroke-width="1.2" stroke="#000" stroke-miterlimit="10" fill="none"/><path d="M60.215 136.895h14v11h-14zm0 0" fill="#fff"/><g fill="#00f"><use xlink:href="#b" x="60.215" y="145.558"/><use xlink:href="#c" x="67.192" y="145.558"/></g><path d="M57.086 122.762l7.773-7.848" stroke-width="1.2" stroke="#000" stroke-miterlimit="10" fill="none"/><path d="M64.86 114.914l7.77-7.852" stroke-width="1.2" stroke="#00f" stroke-miterlimit="10" fill="none"/><path d="M62.336 124.848l6.215-6.278" stroke-width="1.2" stroke="#000" stroke-miterlimit="10" fill="none"/><path d="M68.55 118.57l6.22-6.28" stroke-width="1.2" stroke="#00f" stroke-miterlimit="10" fill="none"/><path d="M57.086 122.762l-21.836-3.348" stroke-width="1.2" stroke="#000" stroke-miterlimit="10" fill="none"/><path d="M72.63 107.063l19.733 9.933" stroke-width="1.2" stroke="#00f" stroke-miterlimit="10" fill="none"/><path d="M69.63 101.563h7v11h-7zm0 0" fill="#fff"/><use xlink:href="#b" x="69.629" y="110.226" fill="#00f"/><path d="M89.363 111.496h7v11h-7zm0 0" fill="#fff"/><use xlink:href="#b" x="89.363" y="120.159" fill="#00f"/></g></svg>
